X:93
T:Polonäs efter Pehr Andersson Bild 31 nr 93 (Dm)
S:efter Pehr Andersson
B:Spelmansbok Ma 1 efter Pehr Andersson daterad 1731
B:FMK - katalog Ma1 bild 31
O:Måstorp, Närke
R:Slängpolska
M:3/4
L:1/8
K:Dm
dc de fd | e2 A4 | fe df ed | e>d cB cA |
dc de fa | "^?"f"^?"e/"^?"f/ g2 a2 | ge fd ec | d2 D4 ::
ff ff fa | ee ee ef | dc de fd | ^ce A4 |
ff ff fa | ee ee ef | ae fd ec | d2 D4 !fine! :|

